assets/Face exhaling/Flat/face_exhaling_flat.svg

<svg width="32" height="32" viewBox="0 0 32 32" fill="none" xmlns="http://www.w3.org/2000/svg">
<g clip-path="url(#clip0_31_3)">
<path d="M15.9989 29.9978C25.3333 29.9978 29.9978 23.7303 29.9978 15.9989C29.9978 8.26751 25.3333 2 15.9989 2C6.66443 2 2 8.26751 2 15.9989C2 23.7303 6.66443 29.9978 15.9989 29.9978Z" fill="#FFB02E"/>
<path d="M15.97 22.92C17.0745 22.92 17.97 22.0246 17.97 20.92C17.97 19.8155 17.0745 18.92 15.97 18.92C14.8654 18.92 13.97 19.8155 13.97 20.92C13.97 22.0246 14.8654 22.92 15.97 22.92Z" fill="#BB1D80"/>
<path d="M15 21C15 20.4477 15.4477 20 16 20C16.5523 20 17 20.4477 17 21V21.5C17 22.8807 18.1193 24 19.5 24C20.8807 24 22 25.1193 22 26.5C22 26.6114 21.8444 26.6226 21.8007 26.5201H10.1993C10.1556 26.6226 10 26.6114 10 26.5C10 25.1193 11.1193 24 12.5 24C13.8807 24 15 22.8807 15 21.5V21Z" fill="white"/>
<path d="M14.95 27C14.7184 28.1411 13.7095 29 12.5 29C11.1193 29 10 27.8807 10 26.5C10 26.6114 10.1556 26.6226 10.1993 26.5201C10.5804 25.6264 11.4671 25 12.5 25C12.608 25 12.7144 25.0068 12.8188 25.0201C13.0082 25.0442 13.0663 25.2742 12.9431 25.42C13.2854 25.7164 13.5546 25.6865 14.0265 25.52C14.4928 25.88 14.8284 26.4011 14.95 27Z" fill="#D3D3D3"/>
<path d="M22 26.5C22 27.8807 20.8807 29 19.5 29C18.2703 29 17.248 28.1122 17.039 26.9425C17.0425 26.9618 17.0461 26.9809 17.05 27C17.1716 26.4011 17.5072 25.88 17.9735 25.52C18.4142 25.52 18.6834 25.42 19.0569 25.42C18.9337 25.2742 18.9918 25.0442 19.1812 25.0201C19.2856 25.0068 19.392 25 19.5 25C20.5329 25 21.4196 25.6264 21.8007 26.5201C21.8444 26.6226 22 26.6114 22 26.5Z" fill="#D3D3D3"/>
<path d="M20 28C20 30.2092 18.2091 32 16 32C13.7909 32 12 30.2092 12 28C12.4481 25.7764 13.7909 24.5353 16 24.5353C18.2091 24.5353 19.5207 25.7913 20 28Z" fill="#C9C9C9"/>
<path d="M19.8759 28.0076C19.8941 28.0789 20 28.0736 20 28C20 25.7909 18.2091 24 16 24C13.7909 24 12 25.7909 12 28C12 28.0736 12.1059 28.0789 12.1241 28.0076C12.5655 26.2785 14.1334 25 16 25C17.8666 25 19.4346 26.2785 19.8759 28.0076Z" fill="#F4F4F4"/>
<path d="M8.06915 7.98761C7.47625 8.55049 7.11769 9.22774 6.97423 9.65811C6.88691 9.92009 6.60375 10.0617 6.34178 9.97434C6.07981 9.88702 5.93823 9.60386 6.02555 9.34189C6.21542 8.77226 6.65687 7.94951 7.38064 7.26239C8.1129 6.5672 9.1478 6 10.4999 6C10.776 6 10.9999 6.22386 10.9999 6.5C10.9999 6.77614 10.776 7 10.4999 7C9.45199 7 8.65355 7.4328 8.06915 7.98761Z" fill="#402A32"/>
<path d="M23.9306 7.98761C24.5235 8.55049 24.8821 9.22774 25.0255 9.65811C25.1129 9.92009 25.396 10.0617 25.658 9.97434C25.92 9.88702 26.0616 9.60386 25.9742 9.34189C25.7844 8.77226 25.3429 7.94951 24.6191 7.26239C23.8869 6.5672 22.852 6 21.4999 6C21.2237 6 20.9999 6.22386 20.9999 6.5C20.9999 6.77614 21.2237 7 21.4999 7C22.5478 7 23.3462 7.4328 23.9306 7.98761Z" fill="#402A32"/>
<path d="M6.21519 13.3804C6.55743 12.9469 7.18626 12.8729 7.61972 13.2152C8.28378 13.7395 8.90948 14 10 14C11.0984 14 11.7506 13.7287 12.368 13.2251C12.7959 12.8761 13.4258 12.94 13.7749 13.368C14.124 13.7959 14.0601 14.4258 13.6321 14.7749C12.6389 15.5851 11.534 16 10 16C8.45824 16 7.39624 15.587 6.38036 14.7849C5.9469 14.4427 5.87295 13.8138 6.21519 13.3804Z" fill="#402A32"/>
<path d="M18.2152 13.3804C18.5574 12.9469 19.1863 12.8729 19.6197 13.2152C20.2838 13.7395 20.9095 14 22 14C23.0984 14 23.7506 13.7287 24.368 13.2251C24.7959 12.8761 25.4258 12.94 25.7749 13.368C26.124 13.7959 26.0601 14.4258 25.6321 14.7749C24.6389 15.5851 23.534 16 22 16C20.4582 16 19.3962 15.587 18.3804 14.7849C17.9469 14.4427 17.8729 13.8138 18.2152 13.3804Z" fill="#402A32"/>
</g>
<defs>
<clipPath id="clip0_31_3">
<rect width="32" height="32" fill="white"/>
</clipPath>
</defs>
</svg>

<svg xmlns="http://www.w3.org/2000/svg" width="32" height="32" fill="none"><g clip-path="url(#a)"><path fill="#FFB02E" d="M15.999 29.998c9.334 0 13.999-6.268 13.999-14 0-7.73-4.665-13.998-14-13.998C6.665 2 2 8.268 2 15.999c0 7.731 4.664 13.999 13.999 13.999Z"/><path fill="#BB1D80" d="M15.97 22.92a2 2 0 1 0 0-4 2 2 0 0 0 0 4Z"/><path fill="#fff" d="M15 21a1 1 0 1 1 2 0v.5a2.5 2.5 0 0 0 2.5 2.5 2.5 2.5 0 0 1 2.5 2.5c0 .111-.156.123-.2.02H10.2c-.044.103-.2.091-.2-.02a2.5 2.5 0 0 1 2.5-2.5 2.5 2.5 0 0 0 2.5-2.5V21Z"/><path fill="#D3D3D3" d="M14.95 27a2.5 2.5 0 0 1-4.95-.5c0 .111.156.123.2.02a2.5 2.5 0 0 1 2.619-1.5c.19.024.247.254.124.4.342.296.612.266 1.084.1A2.5 2.5 0 0 1 14.95 27ZM22 26.5a2.5 2.5 0 0 1-4.95.5 2.5 2.5 0 0 1 .924-1.48c.44 0 .71-.1 1.083-.1-.123-.146-.065-.376.124-.4a2.5 2.5 0 0 1 2.62 1.5c.043.103.199.091.199-.02Z"/><path fill="#C9C9C9" d="M20 28a4 4 0 1 1-8 0c.448-2.224 1.79-3.465 4-3.465s3.52 1.256 4 3.465Z"/><path fill="#F4F4F4" d="M19.876 28.008c.018.07.124.066.124-.008a4 4 0 0 0-8 0c0 .074.106.079.124.008a4.002 4.002 0 0 1 7.752 0Z"/><path fill="#402A32" d="M8.07 7.988c-.594.562-.952 1.24-1.096 1.67a.5.5 0 1 1-.948-.316c.19-.57.63-1.392 1.355-2.08C8.113 6.567 9.148 6 10.5 6a.5.5 0 0 1 0 1c-1.048 0-1.846.433-2.43.988ZM23.93 7.988c.593.562.952 1.24 1.096 1.67a.5.5 0 0 0 .948-.316c-.19-.57-.631-1.392-1.355-2.08C23.887 6.567 22.852 6 21.5 6a.5.5 0 1 0 0 1c1.049 0 1.847.433 2.432.988ZM6.215 13.38a1 1 0 0 1 1.405-.165C8.284 13.74 8.91 14 10 14c1.098 0 1.75-.271 2.368-.775a1 1 0 0 1 1.264 1.55C12.64 15.585 11.534 16 10 16c-1.542 0-2.604-.413-3.62-1.215a1 1 0 0 1-.165-1.405ZM18.215 13.38a1 1 0 0 1 1.405-.165c.664.524 1.29.785 2.38.785 1.098 0 1.75-.271 2.368-.775a1 1 0 0 1 1.264 1.55C24.64 15.585 23.534 16 22 16c-1.542 0-2.604-.413-3.62-1.215a1 1 0 0 1-.165-1.405Z"/></g><defs><clipPath id="a"><path fill="#fff" d="M0 0h32v32H0z"/></clipPath></defs></svg>
